load "/Users/josephwilk/Workspace/repl-electric/adventures-in-algorhythm/piezoelectric_resonator/support/init.rb"


#unity "/scene/1"
defaultcolor
world time: 1.0

live_loop :test do
  tick

  #  linecolor
    # unity "/linecolor/s",0.0
     unity "/linecolor/b",1.0
    # unity "/linecolor/h",rand


  sleep 1
  sleep 1
end
