#mode1
#unity "/postfx/color",1.0
#unity "/alive/rotate",0.0

#bitsea_on :CS4

bitsea_cc motion: 0.10
bitsea_cc octave: 0.50

live_loop :kick do
  tick

  exception :A2

  broken :A2


  kick_machine (ing K1 _ _ _).look, def: 0.4
  sleep 1
end
