load_support('piezoelectric_resonator'); use_bpm 127




live_loop :go do
glitch_cc  corode: rand

  #  stop
 # glitch :c3


#  fx reverb: 0.0

#  glitch_cc corode: (ine 0.2 0.8 128).look
  tick
#  mbox2 :A4, sus: 2
#  mbox2_cc delay: 0.30
#  sleep 1
  sleep 1
end

#mbox2_cc delay: 0.90
