load_support('analog_in_the_digital'); use_bpm 127/2.0


live_loop :name do
  tick

    looper :A3, tune: 0.51



  midi_channel_pressure 100, channel: 7, port: :iac_bus_2



  #midi_cc 50, 63.5, port: :iac_bus_1, channel: 7

  sleep 1
  sleep 1
end
