load_support('piezoelectric_resonator'); use_bpm 127



live_loop :go do
  tick
  deep :A3
  sleep 1
  sleep 1
end


deep_cc dirt: 1.0, tone: 0.0, filter: 0.0



#qbitsea_x
#puts flow_oct(12)
#qbitsea_on :A3
#qbitsea_cc oct: 12

#piano :A3, sus: 12

#operator :A3, sus: 12
#operator_cc solo: 127

#ze_cc solo: 1
