live_loop :name do
  tick
  smp Mountain[/subkick/]
  dviz :ripple, throttle: 0.9
  dviz :alive, deform: rand
  sleep 1
  viz :ripple, throttle: 0.0
  sleep 2
end

viz :alive, light: 0.6
viz :alive, deformrate: 0.0
#viz shard: 0.0
