#puts @osc_server

uncomment do
live_loop :git do
  smp Mountain[/subkick/,[0,0]].tick(:sample), cutoff: 135, amp: 1.0, rpitch: (ring 0).look
  midi :'C3', channel: 3, port: :iac_bus_1
  sleep 1
  end
end



#puts midi_available_ports
#use_midi_logging true
#puts current_midi_channels
#__midi_system_start
