live_loop :name do
  with_fx :none, mix: 0 do
    and_a_day = 1
    
    tick
    forever = (knit and_a_day, 32, 0, 0).look


    if (ring *%W{_ _ _ _    _ _ _ _}).look

      smp Frag[/kick/,[9,9]].tick(:sample), cutoff: 135, amp: 1.0, rpitch: (ring 0).look
      end

    sleep forever
  end
end