live_loop :git do
  tick
  midi (ring :A2, :Cs3 ).look, channel: 3, port: :iac_bus_1, sustain: 6
  sleep 3
end



#puts midi_available_ports
#use_midi_logging true
#puts current_midi_channels
#__midi_system_start
