live_loop :git do
  smp Mountain[/subkick/,[0,0]].tick(:sample), cutoff: 135, amp: 1.0, rpitch: (ring 0).look
  puts "HIT"


  midi :Fs3



  sleep 4
end



#puts midi_available_ports
#use_midi_logging true
#puts current_midi_channels
#__midi_system_start
