live_loop :mixer do
  use_real_time
  data = (sync "/midi/midi_fighter_twister/3/1/control_change")
  set_volume! data[-1]/(127.0/2.0) if data[0] == 33
  puts "VOL#{data[-1]}" if data[0] == 3
  sleep 0.25
end

midi_cc 0,110, channel:0, port: :midi_fighter_twister
midi_cc 1,110, channel:0, port: :midi_fighter_twister
midi_cc 2,110, channel:0, port: :midi_fighter_twister
midi_cc 3,110, channel:0, port: :midi_fighter_twister
