live_loop(:metro)do;tick;sleep 1;end


live_loop :melo, sync: :metro do
  tick

  harp (ring [:A2,3], [:Cs3, 3], [:B2,3]).look
  sleep 3
end

live_loop :high, sync: :metro do
  tick
  sharp (ring :A3, :C3, :E3, _, _).look, sustain: 6
  sleep 12
end

live_loop :drums, sync: :metro do
  tick
  k1 = Frag[/kick/, 9]
  if (s=(ring *%W{k1 _ _ _   _ _ _ _   _ _ _ _   _ _ _ _}).look) != _
    smp eval(s), cutoff: 100
  end

  sleep 3
end



harp_cc phase: 0.5
