live_loop(:metro)do;tick;sleep 1;end

live_loop :melo, sync: :metro do
  tick
  shader :iMode, 0.0
  harp (ring :A2, :Cs3, :B2).look, sustain: 3
  sleep 3
end

live_loop :drums, sync: :metro do
  tick
  k1 = Frag[/kick/,9]

  if (s=(ring *%W{k1 _ _ _   _ _ _ _   _ _ _ _   _ _ _ _}).look) != _
    smp eval(s), cutoff: 80
  end

  sleep 3
end


live_loop :high, sync: :metro do
  tick
  sharp (ring :A3, :CS3, :E3, _, _ ,_ ).look, sustain: 6
  sleep 6
end

harp_cc phase: 0.0
