live_loop(:metro)do;tick;sleep 1;end



live_loop :melo, sync: :metro do
  tick
  shader :iMode, 0.0

  harp (ring :A3).look, sustain: 6

  smp Mountain[/subkick/,[0,0]].tick(:sample), cutoff: 135, amp: 1.0, rpitch: (ring 0).look


  sleep 6
end
