live_loop(:metro)do;tick;sleep 1;end

#smp Words[/beat/,0], start: 0.3, finish: 0.5, rate: 1.0, amp: 8.5


live_loop :melo, sync: :metro do
  tick
  harp (ring :A2, :Cs3, :B2).look
  sleep 6
end

harp_cc phase: 0.01

live_loop :high, sync: :metro do
  tick
  sharp (ring :A3, :Cs4, :E4).look, sustain: 6
  sleep 12
end
