use_bpm 127

#scale C, D, E♭, F, G, A♭, and B♭.

live_loop :test do
  tick

  #smp Mountain[/subkick/,0]

  midi (ing :C3 :F3 :As3).look, sus: 8.2, channel: 1, port: :iac_bus_1

  sleep 4
  sleep 4
end
