load "/Users/josephwilk/Workspace/repl-electric/adventures-in-algorhythm/you_fall_into_your_screen/support/sample_map.rb"
load "/Users/josephwilk/Workspace/repl-electric/adventures-in-algorhythm/you_fall_into_your_screen/init.rb"


#bitsea_on :Cs4

bitsea_cc motion: 0.16
bitsea_cc octave: 0.50
#bitsea_cc formant: 0.00


live_loop :go do
  tick

  [:b2, :d4, :fs3].each{|n| qbitsea n}


  #kick_machine K1
  exception :A2, sus: 0.1

  sleep 2
end



#bitsea_on :cs4
#viz postfx: 1.0

#unity "/postfx/color",1.0
