require "/Users/josephwilk/Workspace/repl-electric/adventures-in-algorhythm/you_fall_into_your_screen/support/sample_map.rb"

load "/Users/josephwilk/Workspace/repl-electric/adventures-in-algorhythm/you_fall_into_your_screen/init.rb"

#bitsea_on :CS4
#mode0

bitsea_cc motion: 1.00
bitsea_cc octave: 0.50
#bitsea_cc formant: 0.50

bitsea_on :cs4

live_loop :kick do
  tick


  #exception :A2, atk: 0.8
  #corrupt :A3, motion: 0.4

  #kick_machine (ing K1).look, def: 0.4
  sleep 1
  #kick_machine (ing K1).look, def: 0.4
  sleep 1
end
