bitsea_on :A2
camlogo invert: 0.0, logo: 1.0, rotate: 20.0,crazy: 1.0
live_loop :go do
  tick
  smp Mountain[/bowed/,/a_|e_|c#_/].look
  verb_slice Drip[/effect/].look if spread(1,3).look

  sleep 2
end
