require "/Users/josephwilk/Workspace/repl-electric/adventures-in-algorhythm/you_fall_into_your_screen/support/sample_map.rb"

load "/Users/josephwilk/Workspace/repl-electric/adventures-in-algorhythm/you_fall_into_your_screen/init.rb"

#bitsea_on :CS4
#mode1

bitsea_cc motion: 0.10
bitsea_cc octave: 0.50
#bitsea_cc formant: 0.50

#bitsea_on :cs4

live_loop :kick do
  tick



  exception (ing :A2, _,).look, atk: 0.8
  corrupt (ing :A3, _, ).look, motion: 0.4

  kick_machine (ing K1,).look, def: 0.3
  sleep 1
  kick_machine (ing K1,).look, def: 0.4
  sleep 1
end
