live_loop :form do
  tick
  midi :e3,    channel: 2, sus:2
  midi :b3,    channel: 2, sus:2
  midi :g4,80, channel: 2, sus:2
  midi :g5,82, channel: 1, sus:2
  sleep 1
  midi :g4,80, channel: 1, sus:2
  midi :g5,82, channel: 1, sus:2
  sleep 1
  midi :fs3,70, channel: 3
  sleep 1/2.0
  sleep 1/2.0
  sleep 1/2.0
  midi :fs3,70, channel: 3
  sleep 1/2.0
  midi :fs3,70, channel: 3
end
