load "/Users/josephwilk/Workspace/repl-electric/adventures-in-algorhythm/you_hello_world/support/midi.rb"































#nsynth_cc x: 0.90, y: 1.00

live_loop :alive do;tick
  #nsynth :C3, sus: 2
  nsynth n=(ing :G3 :E3 :D3 _ :E3 :A3 :F3 _).look,127, sus: 2
  baz n,1, mix: 0.0, sus: (ing 0.5 1 0.25 1).look
  baz :C2,1, mix: 0.0, sus: (ing 0.5 1 0.25 1).look
  sleep 2
end
