nsynth_cc x: 0.70, y: 0.80
live_loop :alive do;tick
  smp Mountain[/subkick/,0] if (ing 1 1 1 0 1 0 1 0 ).look == 1
  nsynth_cc x: (line 0, 1.0, 128).look,
            y: (line 0, 1.0, 128).look
  nsynth (ing :G3 :E3 :D3 _
          :E3 :A3 :F3 _
          ).look, sus: 0.5
  baz :C2,1, mix: 1.0, sus: (ing 0.25 1 0.25 1).look
  sleep 1.0/2.0
end
