load "/Users/josephwilk/Workspace/repl-electric/adventures-in-algorhythm/you_hello_world/support/midi.rb"; use_bpm 127











live_loop :alive do;tick
  nsynth_cc x: (line 0.0, 1.0, 128).look, y: 0.0
  nsynth (ing :G3 :E3 :D3 _ :E3 :C3 :A2).look
  sleep 1.0
end
