load "/Users/josephwilk/Workspace/repl-electric/adventures-in-algorhythm/you_hello_world/support/midi.rb"; use_bpm 127











live_loop :alive do;tick
  nsynth_cc x: (line 0.0, 1.0, 128).look,
  y: (line 0.0, 1.0, 128).look
  nsynth (ing :G3 :E3 :D3 _ :E3 :C3 :A2 _).look
  baz :Cs3,sus: 0.5
  sleep 1.0/2.0
end
