puts "MULTIBALL"




live_loop :testing do
  tick

  midi (ring :A2, :Cs3, :B2).look, port: :iac_bus_1, channel: 12, sustain: 1/8.0

#(I, ii, iii, IV, V, vi, viio

  #ACE I
  #BDE ii
  #CEG iii
  #DFA IV
  #EGB V
  #FAC vi
  #GBD viio


  chord(:D3).shuffle.each do |n|
    #    harp n, sustain: 12*2
#    sleep (ring 0.5,1,1.5).look
  end

  sleep 1/2.0
end
