D4=:d4;E4=:e4;FS4=:Fs4;GS4=:Gs4;Cs4=:Cs4;A4=:A4;B4=:B4;D3=:d3;E3=:e3;FS3=:Fs3;GS3=:Gs3;Cs3=:Cs3;A3=:A3;B3=:B3;D2=:d2;E2=:e2;FS2=:Fs2;GS2=:Gs2;Cs2=:Cs2;A2=:A2;B2=:B2;

live_loop :name do
  tick
  zzk = (ing
    D3, _, FS3, E3,   _, _, _, _,
    _, E3, _, _,       _, _, _, _,
    _, _, _, _,        _, _, _, _,
    ).look
  midi zzk,10, channel: 2
  sleep 1/8.0
end
#midi :C3
