load "/Users/josephwilk/Workspace/repl-electric/adventures-in-algorhythm/you_hello_world/support/midi.rb"; use_bpm 127











nsynth_cc x: 0.6, y: 0.80
live_loop :alive do;tick
  nsynth :A2
  sleep 2
end
