load "/Users/josephwilk/Workspace/repl-electric/adventures-in-algorhythm/you_hello_world/support/midi.rb"; use_bpm 127











#nsynth_cc x: 0.0, y: 0.0
live_loop :alive do;tick
  nsynth :G3
  sleep 1/2.0
end
