live_loop :breaking_the_ruby do
  tick
  puts (ing "No" "No" "Commas").look
  puts (ing .3 .4 .5).look
  zero (ing
        :A3 :CS3 :B2 :GS2
        :A3 :Cs3 :B3 :GS2

        ).look, (ring 1,1,127).look
  sleep 1
end
