load "/Users/josephwilk/Workspace/repl-electric/adventures-in-algorhythm/you_hello_world/support/midi.rb"


































#nsynth_cc x: 0.00, y: 1.00

live_loop :alive do;tick
  smp Mountain[/subkick/,0]
  nsynth n=(ing :G3 :E3 :D3 _ :E3 :A3 :F3 _).look,20, sus: 1
  baz :C2,1, mix: 0.0, sus: (ing 0.5 1 0.25 1).look
  sleep 1
end
