puts "MULTIBALL"




live_loop :testing do
  tick

  midi :A4, port: :iac_bus_1, channel: 12

#(I, ii, iii, IV, V, vi, viio

  #ACE I
  #BDE ii
  #CEG iii
  #DFA IV
  #EGB V
  #FAC vi
  #GBD viio


  chord(:D3).shuffle.each do |n|
    #    harp n, sustain: 12*2



    sleep (ring 0.5,1,1.5).look
  end

  sleep 1/4.0
end
