load "/Users/josephwilk/Workspace/repl-electric/adventures-in-algorhythm/you_hello_world/support/midi.rb"
































nsynth_cc x: 0.00, y: 0.00



live_loop :alive do;tick
  #smp Mountain[/subkick/,0] if (ing 1 1 1 0 1 0 1 0 ).look == 1
  #nsynth (ing :G3 :E3 :D3 _ :E3 :A3 :F3 _).look, sus: 2.0
  #baz :C2,20, mix: 1.0, sus: (ing 0.5 1 0.25 1).look
  sleep 2
end
