live_loop :piano do
  tick

  n = (ing
    [:A2  :Cs3  :E3 ]        #1
    [:E3  :Gs3  :B3 ]        #5
    [:D3  :Fs3  :A3 ]        #4
    [_ _ _]
    [:B3  :D3   :FS3]        #2
    [:FS3 :A3   :Cs3]        #6
    [:E3  :Gs3  :B3 ]        #5
    [:A3  :B3   :E4 ]        #1
    [:A3  :cs4  :E4 ]        #1
    [_ _ _]                   #10
    ).look


  n = (ing
    (chord :A2)
    (chord :E3)
    ).look

  puts note_inspect(n)
  n.each {|i|   piano i, sustain:2}

  sleep 3
end
