load "/Users/josephwilk/Workspace/repl-electric/adventures-in-algorhythm/piezoelectric_resonator/support/midi.rb"

#midi_note_on :E4, 127, port: :iac_bus_2, channel: 1



#stop

live_loop :name do

  tick
#  mbox :C3, sus: 16
#  mbox :E4, sus: 16
#  mbox :G3, sus: 16
  sleep 16
end


  mbox_on :C3, sus: 16
  mbox_on :E4, sus: 16
  mbox_on :G3, sus: 16



mbox_cc  motion: 0.45, sat: 0.50, drive: 0.60
mbox2_cc  motion: 0.50, sat: 0.00, drive: 0.50
