live_loop :name do
  tick
  with_swing -0.01 do
  mbox :A3, sus: 4
  sleep 1
  mbox :F4, sus: 2
  sleep 1
  sleep 1
  mbox :C4, sus: 1
    sleep 1
  end
end



mbox_cc  motion: 0.50, sat: 0.50, drive: 0.50
mbox2_cc  motion: 0.50, sat: 0.00, drive: 0.50
