(scale :A3, :major).each {|s|

  [1..16].each {|c|
    puts c
    midi s,127, channel: c, port: "midisport_2x2_anniv_a", sus: 2
    sleep 0.5
    }
  #midi s,10, channel: '1', port: "midisport_2x2_anniv_a"
  sleep 1
}
