["instruments","shaderview","experiments", "log"].each{|f| load "/Users/josephwilk/Workspace/repl-electric/live-coding-space/lib/#{f}.rb"}
_=nil

# d[-_-]b
#   /█\
#  .Π.

#Testing

live_loop :test do

  shader :decay, :iBeat, 5.0, 0.01
  shader :decay, :iWave, 5.0, 0.01

  play :Fs1, release: 4.0
  sample Mountain[/subkick/,90]
  sleep 4
end

shader(:uniform, :iCells, 1.0)