
live_loop :testing do
tick
x=nil
play x= ring(       chord(:FS2, :m),
      chord(:B2, :m),
      chord(:E2, :m),
      chord(:D2, :m),
      chord(:A2, :M),
      chord(:E2, :M),
).look, decay: 2
puts note_inspect(x)
sleep 2
end