#play chord_degree(1, :Fs3, :minor)

#1 3 5

play degree(1, :Fs3, :minor), release: 8.0
sleep 1
play degree(2, :Fs3, :minor), release: 8.0
sleep 1

play degree(4, :Fs3, :minor), release: 8.0
sleep 1

play degree(1, :Fs3, :minor), release: 8.0
sleep 1
play degree(5, :Fs3, :minor), release: 8.0