with_fx(:reverb, room: 1.0, mix: 1.0) do
live_loop :test do
  use_synth :gpa
    notes = chord((ring :Fs3, :As3, :Ds3, :Cs3).tick(:m), '11')
    8.times{
    sync :apeg
      play notes.tick, attack: 0.001, amp: 1.0, release: 0.09, attack: 0.01, wave: 0
    }
end
end