

live_loop :hihgh do
sample :sn_dolf
#play 40
sync :kick
sample :loop_industrial
sync :kick
with_fx :reverb do
sample :loop_industrial
end
end

n = 0
live_loop :drums do
cue :kick
sample :drum_bass_hard
sample :loop_amen
sample :loop_industrial, amp: 0.1

if n% 2 == 0
  with_fx :bitcrusher, bits: 4+n%7 do
  cue :MAD
  sample :loop_amen
  end
  n+=1
end

sleep sample_duration(:loop_amen)
end