#play chord_degree(1, :Fs3, :minor)

#1 3 5
use_bpm 130

play degree(1, :Fs3, :minor), release: 8.0
sleep 8
play degree(2, :Fs3, :minor), release: 8.0
sleep 8

play degree(4, :Fs3, :minor), release: 8.0
sleep 8

play degree(1, :Fs3, :minor), release: 8.0
sleep 8
play degree(7, :Fs2, :minor), release: 8.0