live_loop :ambi do
  with_synth :dark_sea_horn do
  play degree(4, :A2, :major), release: 8.0
  sleep 8
  play degree(6, :A2, :major), release: 8.0
  sleep 8
  play degree(5, :A2, :major), release: 8.0
  end
end