def say(words)
  use_synth :dark_sea_horn
  use_synth_defaults release: 2.0 
  t = scale(:e2, :major_pentatonic, num_octaves: 2)
  notes = words.split("").map(&:ord).map{|n| t[n%t.length-1]}
  #play_pattern_timed notes, [1/2.0]
  notes.map{|n| if n.chr == " "
                  play n
                  sleep 2
                else
                play n
                  sleep 1/2.0
                end}
end

say <<-POEM
Tiger tiger burning bright in the forest of the night
POEM