use_bpm 60
bar = 1.5
live_loop :back do
  play degree(1, :A2, :major),attack: 0.2
  sleep bar/2.0
  play degree(5, :A2, :major),attack: 0.1, release: 1.0
  sleep bar/2.0
end

live_loop :doo do
sync :back
play chord(:A4, '+5')
end

live_loop :back2 do with_fx :level, amp: 0.0 do
play (knit chord(:A3, 'sus4'),8,
           chord_degree(1, :A3, :major),8).tick(:A) , attack: 0.1, release: 0.1, decay: 0.1, amp: 0.8
sleep bar/4.0
end;end