set_volume! 1.0

live_loop :arp do

#with_fx(:echo) do
with_synth :sine do
n = (chord :Ds3)
  play n , amp: 1, release: 0.1, attack: 0.1
with_transpose(12) do
  play n[-1], release: 0.05
end
#end
end
 sleep 1/8.0

end