["instruments","shaderview","experiments", "log"].each{|f| load "/Users/josephwilk/Workspace/repl-electric/live-coding-space/lib/#{f}.rb"}; _=nil

shader :iCells, 1.0

live_loop :rumblings do
  with_synth :dark_sea_horn do
    play (ring :Fs1).tick(:notes), cutoff: rrand(80,90)
  end
  sleep 8
end