["instruments","shaderview","experiments", "log"].each{|f| load "/Users/josephwilk/Workspace/repl-electric/live-coding-space/lib/#{f}.rb"}; _=nil


live_loop :do do
  with_synth :dark_sea_horn do
    play (ring :Fs1).tick(:notes), cutoff: 70
  end
  sleep 8
end