["shaderview","experiments", "log"].each{|f| load "/Users/josephwilk/Workspace/repl-electric/live-coding-space/lib/#{f}.rb"}
_=nil
#Messing around with Sonic Pi, nothing polished. Just play. Play can go wrong, thats ok.


live_loop :softly_kicking do
  sample Mountain[/subkick/,0]
  sleep 2
end