live_loop :harmony do
  sleep 0.5
  with_fx(:reverb) do
    with_synth(:hollow){
      with_fx :pitch_shift, pitch_dis: 0.001, time_dis: 0.1, window_size: 1.5  do
        #        with_fx :slicer, phase: 1.0 do
        #F G A B C D E
        play (ring :Fs3, :As3, :Cs3, :Gs4).tick, release: 8, amp: 2
        #        end
      end
    }
  end
end