#play chord(:B3, "m+5"), release: 8, decay: 8


live_loop :demop do |idx|
play deg_seq(*%w[:A2 4444 5555 11111])[idx]
sleep 0.5
idx+=1
end


live_loop :demo2 do |idx|
play chord(:B2, "m7+5"), release: 1, decay: 1
sleep 2

idx+=1
end