bar = 1/2.0

live_loop :fuzz do


with_fx :reverb do

with_fx :hpf, cutoff: 114 do
use_synth :dsaw
play degree(6, :A2, :major), release: bar*3, decay: bar*1, amp: 0.9, attack: 0.5
end
sleep bar*4
end
end