["instruments","shaderview","experiments", "log"].each{|f| load "/Users/josephwilk/Workspace/repl-electric/live-coding-space/lib/#{f}.rb"}
_=nil
#load_snippets("~/.sonic-pi/snippets/")
# d[-_-]b
#   /█\
#  .Π.
# Practicing with Sonic Pi

#Fin, thanks!
# This was live coded with Ruby and Sonic Pi.

sample Mountain[/kick/,[0,0]].tick(:sample), cutoff: 60, amp: 0.5

live_loop :monkeys do

  sleep 1
end

2.times {
sample Mountain[/kick/,[1,10]].tick(:s2), amp: 0.5
sleep 0.5
}