bar = 1.0

live_loop :hats do
end

live_loop :kick do
end

live_loop :snare do
end

live_loop :synthers do
with_synth :prophet do
density(3) do
with_fx :slicer, phase: bar/2.0 do
sample Ether[:noise].tick(:s)
sleep bar/1.0
end
end
end
end

live_loop :snare do
#density(2) do
sample Ether["noise"][0], amp: 9.0
sleep  bar/8.0
#rend
end