

live_loop :drums do
sample :bd_ada
shader("decaying-uniform", :iBeat, 5.0, 0.005)
sleep 4
end

#shader("uniform", :iCells, 1.0)
#shader("uniform", :iBeat, 3.05)

shader("uniform", :iWave, 0.0)


#shader("uniform", :iBeat, 0.0)