["log","experiments", "shaderview"].each{|f| load "/Users/josephwilk/Workspace/repl-electric/live-coding-space/lib/#{f}.rb"}
_=nil
#We have audio

live_loop :time do
 sleep 0.25*1
end

live_loop :darkness do
32.times{sync :time}
use_synth :dark_ambience
notes = (ring chord(:Fs3)).tick 
play notes
end