_=nil
#No graphics for now :( 
# Just messing and  exploring some ideas. It will be messy, its practice, its supposed to be :)

live_loop :space do
  use_synth :dark_ambience
  play :Fs1, release: 0.8, decay: 4.0
  sleep 4.0
end