def harp_cc(cc,vv)
  case "house"
  end
  midi_cc n, vv, port: :iac_bus_1, channel: 5
end


live_loop :thing  do
  tick
  #bass_cc 20
    harp :A3,30, sustain: 8#, cutoff: (ramp 0, 128,128).look
    harp_cc(:cutoff 100)




  sleep 8
end

