bar = 1.0

live_loop :time do
cue :one
sleep bar/4.0
cue :two
sleep bar/4.0
cue :three
sleep bar/4.0
cue :four
sleep bar/4.0

end

live_loop :kick do
sync :one, :three
sample Ambi[/kick/, 3]
end

live_loop :snare do
sync :two,:four
sample_and_sleep Ambi[/snare/, 3]
end