live_audio :livez, input: 0


live_loop :testing do
  #midi :A3, 10, port: :iac_driver_iac_bus_1, channel: 2, sustain: 0.8
  sleep 1
end

live_loop :iter, sync: :testing do
   midi :Fs2, 10, port: :iac_driver_iac_bus_1, channel: 1

end
