["log","experiments"].each{|f| load "/Users/josephwilk/Workspace/repl-electric/live-coding-space/lib/#{f}.rb"}


use_bpm 80

live_loop :samplz do
  sample "/Users/josephwilk/Workspace/music/samples/loops/Sample Magic/synth & key loops/80bpm/am_syn80_clover_C#.wav",
    beat_stretch: 4
  sleep 4
end


live_loop :ambi do
  use_synth :beep

  note = (knit :FS3).tick(:note)
  release = (ring 1.0,1.0,1.0,1.0, 1/2.0,1/2.0,1/2.0, 1/2.0).tick(:r)

  play note, release: release
  sleep release


end