["log","experiments", "shaderview"].each{|f| load "/Users/josephwilk/Workspace/repl-electric/live-coding-space/lib/#{f}.rb"}

live_loop :ambi do
  sample Frag[/Fm/,0]
  sleep 8
end

live_loop :corrupts do
#   sample Corrupt[/Fm/, 2]
sleep 1
end

#sample Corrupt[/F#m/,4]

               live_loop :minor do
                  synth :string, note: scale(:Fs3, :minor_pentatonic).take(3).shuffle[0]
                  sleep 0.5
               end