["experiments", "drums"].each{|f| load "/Users/josephwilk/Workspace/repl-electric/live-coding-space/lib/#{f}.rb"}

b1 = MountainLoop[/bear/i,0]
b2 = MountainLoop[/bear/i,1]


use_sample_bpm b1

live_loop :looper do
  sample b1
  sleep 1
end

live_loop :looper2 do
  sync :looper
  sleep 1
  sample b2
end