live_loop :drums do

with_fx(:bitcrusher, bits: (ring 6,7,8,9,10,11).tick(:crush)) do
    sample :loop_amen
    sleep sample_duration(:loop_amen)
  end
end

live_loop :kick do
  sync :drums
  sample :drum_cymbal_pedal
  sample :drum_bass_soft
end

live_loop :hats do
  sync :drums
  8.times{
    sample :drum_cymbal_pedal
    sleep sample_duration(:loop_amen)/4.0
  }
end

live_loop :loop do |m_idx|
  sync :drums
  case m_idx % 4
   when 0
  sample :loop_industrial
  end
  m_idx+=1
end