["instruments","shaderview","experiments", "log"].each{|f| load "/Users/josephwilk/Workspace/repl-electric/live-coding-space/lib/#{f}.rb"}
_=nil
load_snippets("~/.sonic-pi/snippets/")
# d[-_-]b
#   /█\
#  .Π.
# Practicing with Sonic Pi

live_loop :dark do
  with_synth :dark_sea_horn do
    play (ring :FS1).tick, decay: 8.1
  end
  sleep 8
end