["shaderview","experiments"].each{|f| load "/Users/josephwilk/Workspace/repl-electric/live-coding-space/lib/#{f}.rb"}

#shader(:shader, "nil.glsl")
live_loop :d do
shader("decaying-uniform", "iBeat", 1.0)
sample Mountain[/subkick/,0], cutoff: 100
sleep 4.0
end

live_loop :c do
sleep 2.0
shader("uniform", "iBeat", 1.5)
sample Mountain[/snare/,1]
sleep 2.0
end