bar = 1/4.0

live_loop :metro do
  cue :bar; cue :eight
  sleep bar/2; 
  cue :quart; cue :eight 
  sleep bar/2  
  cue :bar; cue :eight
  sleep bar/2; 
  cue :quart; cue :eight
  sleep bar/2
  cue :half; cue :eight
  cue :bar
  sleep bar/2; 
  cue :quart; cue :eight 
  sleep bar/2
  cue :bar; cue :eight
  sleep bar/2; 
  cue :quart; cue :eight
  sleep bar/2
end

live_loop :d do
 4.times{sync :eight; sample :elec_blip}
 sync :eight
 #sample :elec_blup
 sync :eight
 sample :elec_blip

end