beat = 1.0
live_loop :test do |h_inc|
 play degrees_seq(:Cs3, 333322221111865, :Cs3, 6655544444)[h_inc], attack: 0.01, release: (ring beat, beat, beat, 
                                                                                                    beat*2, beat*2)[h_inc]
  h_inc+=1
sleep beat
end