

live_loop :drums do
sample :bd_ada
shader("curve-uniform", :iBeat, 4.0, 0.1, 0.01)
sleep 4
end

#shader("uniform", :iCells, 1.0)
#shader("uniform", :iBeat, 3.05)

shader("uniform", :iWave, 0.0)


#shader("uniform", :iBeat, 0.0)