
def hollowed_synth(n)
use_synth :hollow
with_fx :pitch_shift, pitch_dis: 0.001, time_dis: 0.1, window_size: 1.5  do
#with_fx :slicer, phase: 1/64.0 do
play n, release: 8, amp: 10
#end
end
end

hollowed_synth degree(1, :Cs4, :major)