

live_loop :b do
  sample :sn_dolf
  sync :high
  sample :loop_industrial
end

n=0
live_loop :a do
  
  cue :high
sample :loop_amen

case n%7
when 0
with_fx :bitcrusher, bits: 4+n%7 do
sample :loop_amen
end

end

sleep sample_duration :loop_amen
n+=1
end