bar = 1



live_loop :texture do
with_fx :reverb, room: 1.0 do
with_fx :pitch_shift, pitch_dis: 2.1, time_dis: 2.1, window_size: 2.5 do
#with_fx :slicer, phase: (ring bar*1, bar*4,bar*8).tick, smooth: 1.0 do
with_synth(:dark_ambience){
    play chords_for(:Fs1, :major_pentatonic).tick, amp: 10.0, attack: bar*4.0, release: bar*4.0, sustain: bar
}
#end
sleep bar*8
end
end
end