["log","experiments", "shaderview"].each{|f| load "/Users/josephwilk/Workspace/repl-electric/live-coding-space/lib/#{f}.rb"}

live_loop :minor do
 notes = (ring (chord :Fs3, 'm'), chord(:A3, 'm'), chord(:Cs3,:m9)).tick
 with_synth :dark_ambience do
    play notes, release: 2.0
end
 sleep 1
end

live_loop :mono do
notes = scale(:Fs3, :minor_pentatonic, num_octaves: 3).take(3)
  16.times{
    play notes.tick
    sleep 0.25
}
end