["instruments","shaderview","experiments", "log"].each{|f| load "/Users/josephwilk/Workspace/repl-electric/live-coding-space/lib/#{f}.rb"}; _=nil

set_volume! 5.0

live_loop :do do
  with_synth :dark_sea_horn do
    play (ring :Fs1).tick(:notes), cutoff: rrand(75,80)
  end
  sleep 8
end

live_loop :if do
  with_fx(:echo, decay: 0.5, mix: 1.0, phase: 0.25) do
    sample Mountain[/subkick/,[0,0]].tick(:sample), cutoff: 80, amp: 1.0

  end
  sleep 2

end