["log","experiments", "shaderview"].each{|f| load "/Users/josephwilk/Workspace/repl-electric/live-coding-space/lib/#{f}.rb"}
_=nil

#testing audio........


live_loop :test do
  use_synth :dark_ambience
  play :Fs4, release: 2.0
  sleep 1.0
  shader(:uniform, "iBeat", 1.0)
end