bar = 0.5
live_loop :back do
  play degree(1, :Gs3, :major),attack: 0.2
  sleep bar/2.0
  play degree(3, :Gs3, :major),attack: 0.25, release: 1.0
  sleep bar/2.0
end

live_loop :back2 do
sync :back
  #play degree(1, :Fs2, :major), attack: 0.01, release: 2, decay: 2
end