beat = 1.0/4.0
live_loop :test do |h_inc|
  play degrees_seq(:Cs3, "868885555444433335544441111", 
                   :Cs2, 81818181818181, 
                   :Cs3, 11)[h_inc], 
                  attack: 0.01, release: (ring beat, beat, beat*4, beat*4)[h_inc]
  sleep beat
  h_inc+=1
end

live_loop :test2 do |h_inc|
  sync :test
  play degrees_seq(:Cs0, "77665544332211")[h_inc], attack: 0.1, release: beat*4
  sleep beat
  h_inc+=1
end