

live_loop :drums do
sample :bd_ada
shader("decaying-uniform", :iBeat, 5.0, 0.003)
shader("decaying-uniform", :iKick, 1.0)
shader("decaying-uniform", :iWave, 0.9, 0.0025)
sleep 4
shader(:uniform, :iFizzle, rand)
end

live_loop :image do
  with_synth(:prophet){
   play :Fs2, decay: 1, amp: 1.5, cutoff: 50
}
  sleep 1
end

#shader("uniform", :iCells, 1.0)
#shader("uniform", :iBeat, 3.05)



#shader("uniform", :iBeat, 0.0)