["log","experiments", "shaderview"].each{|f| load "/Users/josephwilk/Workspace/repl-electric/live-coding-space/lib/#{f}.rb"}
t=true;f=false;_=nil
#Just messing around, will see what happens.

use_bpm 120

live_loop :looper do
  sample Corrupt[/bass/, /_D#_/, 0]
  sleep 16
end