live_loop :a do
  sync :hit
  sample :loop_industrial
  
end

n=0
live_loop :b do
  cue :hit
  sample :loop_amen
  sample :loop_amen, rate: [-1, 0.5, 1].choose
sleep sample_duration :loop_amen
n+=1
end