bar = 1.0


soft_noise = [6,7,8,9,   10,12,13,14]

live_loop :crackels do

# sample Ambi[/crackle/i,0]

# sample Ether[/noise/i][6..9].tick

 sample Ether[/noise/i][9..-1].tick


 sleep bar/2.0



end