live_loop :echo do
  with_fx(:lpf, cutoff: 80) do
    with_fx(:echo, decay: 0.5) do
      sample Dust[/F#m/,4], pitch: (ring -12, -24).tick
      play (ring :fs3, :A3)
    end
    Dust[/A[^#]/,8]
    sleep 4
  end
end

sample Dust[/A[^#]/,8]