use_synth :beep
play 60, amp: 4
play 60, amp: 4
play 60, amp: 4
play 60, amp: 4
play 60, amp: 4
play 60, amp: 4
play 60, amp: 4
play 60, amp: 4
play 60, amp: 4
play 60, amp: 4
play 60, amp: 4
play 60, amp: 4
play 60, amp: 4
play 60, amp: 4
play 60, amp: 4
play 60, amp: 4
play 60, amp: 4
play 60, amp: 4
play 60, amp: 4
play 60, amp: 4
play 60, amp: 4
play 60, amp: 4
play 60, amp: 4
play 60, amp: 4
play 60, amp: 4
play 60, amp: 4
play 60, amp: 4
play 60, amp: 4
play 60, amp: 4
play 60, amp: 4
play 60, amp: 4
play 60, amp: 4
play 60, amp: 4
play 60, amp: 4
play 60, amp: 4
play 60, amp: 4
play 60, amp: 4