live_loop :test do
sample Scape[/perc/i].tick, beat_stretch: (ring *((0..10).to_a)).tick
sleep 0.25
end


live_loop :snare do
sync :test
sample Scape[/snare/i].tick
sleep 0.5
end

live_loop :kick do
sync :test
sample Scape[/hats/i].tick
sleep 0.25
end


live_loop :digi do
sync :test
sample_and_sleep Scape[/digital/i].tick
end