#10 year old children can do this. 
["experiments.rb"].each{|f| load "/Users/josephwilk/Workspace/repl-electric/live-coding-space/lib/#{f}"}
load_snippets("~/.sonic-pi/snippets")


play 60
sleep 1
play 50
sleep 0.5
play 40