f=false;t=true
# Just messing around with SonicPi.
# Nothing polished, just learning the music and code thing.

live_loop :frozen? do
#  with_fx()
  with_fx(:reverb, reps: 4, room: 1.0){
  use_random_seed 300
  notes = scale(:Fs3, :minor_pentatonic, num_octaves:2).take(3).shuffle
  with_synth(:hollow){
      play notes.tick
  }
  sleep 0.25*1
}
end