bar = 4.0

live_loop :time do
cue :one
sleep bar/4.0
cue :two
sleep bar/4.0
cue :three
sleep bar/4.0
cue :four
sleep bar/4.0

end

live_loop :kick do
sync :one, :three
sample Ambi[/kick/, 0]
end

live_loop :snare do
sleep bar/4.0
sample_and_sleep Ambi[/snare/, 0]
end