
live_loop :dreaming, sync: :testing do
tick
if spread(1,2).look
smp Frag[/hihats/,[10,10,10,10,11]].look, amp: 0.25
midi (ring :FS3).look,100, sustain: 0.25, channel: 9, port: :iac_bus_1
end
#puts Dusty[/shaker/,100]

sleep 1/4.0
end
