live_loop :drums do
sample :loop_amen

with_fx(:bitcrusher, bits: (ring 2..10).tick(:bits)) do
sleep sample_duration(:loop_amen)
end

end


live_loop :kick do
  sync :drums
  sample :drum_bass_soft

end