["shaderview","experiments", "log"].each{|f| load "/Users/josephwilk/Workspace/repl-electric/live-coding-space/lib/#{f}.rb"}
_=nil

#Messing around with Sonic Pi. Expect mess. Ambient minimal music.

live_loop :drifting do
  with_synth :dark_sea_horn do
    play (ring :Fs1), decay: 8.01, cutoff: 40
  end
  sleep 8
end

live_loop :war do
  sample Mountain[/subkick/,0], cutoff: 100
  sleep 1
  sleep 1
end