
live_loop :drums do
  sync :kick
  sample :drum_bass_hard
#  sleep 1.0
end

n=0
live_loop :beats do 
  cue :kick
  sample :loop_amen

  case n%7
  when 0
  with_fx :bitcrusher, bits: 4+n%7 do
    sample :loop_amen
  end
  end

  sleep sample_duration :loop_amen
  n+=1
end