#sample Corrupt[/f#/,23]


live_loop :dust do
sample_and_sleep Dust[/Warmer_135_F#m/]
end

                        live_loop :bass do
                          synth, :dsaw, note: (ring :Fs1).tick(:n)

                        end