#play chord_degree(1, :Fs3, :minor)

#1 3 5



x = play degree(1, :Fs3, :minor), release: 8.0, decay: 8.0*4, note_lag: 2.0
sleep 8
control x, note: degree(2, :Fs3, :minor)
sleep 8
control x, note: degree(4, :Fs3, :minor)
sleep 8

control x, note: degree(7, :Fs2, :minor)
sleep 8
control x, note: degree(5, :Fs3, :minor)