["log","experiments", "shaderview"].each{|f| load "/Users/josephwilk/Workspace/repl-electric/live-coding-space/lib/#{f}.rb"}
_=nil

live_loop :time do
sleep 0.25*1
end

live_loop :darkness do

  

end