bar = 1.0


soft_noise = [6,7,8,9, 10,12,13,14, 21,27]

live_loop :crackels do

# sample Ambi[/crackle/i,0]

# sample Ether[/noise/i][6..9].tick
# sample Ether[/noise/i][10..14].tick


#sample Ether[/noise/i][21]
#sample Ether[/noise/i][27]



# sample Ether[/noise/i][10..14].tick



# sample Ether[/noise/i][20..-1].tick

sample Ether[/noise/i, 20], rate: -0.2


 sleep bar/2.0



end