load "/Users/josephwilk/Workspace/repl-electric/live-coding-space/lib/samples.rb"
load "/Users/josephwilk/Workspace/repl-electric/live-coding-space/
live_loop :test do
  smp Mountain[/subkick/]
  play chord(:f3)

  sleep 1
end
