["instruments","shaderview","experiments", "log"].each{|f| load "/Users/josephwilk/Workspace/repl-electric/live-coding-space/lib/#{f}.rb"}
_=nil

# d[-_-]b
#   /█\
#  .Π.

live_loop :sea do
  with_synth :dark_sea_horn do
    play (ring :Fs1).tick, decay: 8.1, amp: 0.1, cutoff: 40
  end
  sleep 8
end