["instruments","shaderview","experiments", "log"].each{|f| load "/Users/josephwilk/Workspace/repl-electric/live-coding-space/lib/#{f}.rb"}
_=nil
load_snippets("~/.sonic-pi/snippets/")

with_fx(:reverb, room: 1.0, mix: 1.0) do
  live_loop :come_with_me_on_a_journey do
    with_synth :dark_sea_horn do
      play (ring :Fs1).tick(:notes), cutoff: 80, decay: 8.01
    end
    sleep 8.0
  end
end

shader :iCells, 0.1