load "/Users/josephwilk/Workspace/repl-electric/live-coding-space/lib/samples.rb"
live_loop :test do
  tick
  smp Mountain[/subkick/]
  zero :C3, sustain: 3
  play :C3, sustain: 3, amp: 0.5
  sleep 8
end
