# Loading previous buffer contents. Please wait...load "/Users/josephwilk/Workspace/repl-electric/live-coding-space/lib/samples.rb";load "/Users/josephwilk/Workspace/repl-electric/live-coding-space/lib/dsp.rb";load "/Users/josephwilk/Workspace/repl-electric/live-coding-space/lib/monkey.rb"
#shader :shader, "wave.glsl", "rope.vert", "lines", 100000
set_volume! 1.0

live_loop :vocals do
 tick
 midi :FS0#, sustain: 0.25
 sample Berry[/mm/].reverse[0..2].look, amp: 1.5
 sleep 1
end

live_loop :beat, sync: :vocals do
  smp Mountain[/subkick/,0], cutoff: 80
  sleep 1
end
