bar = 1.0
live_loop :baszzel do
#  with_fx :reverb do
    play (knit 
          chord_degree(1, :Fs3, :major).to_a,2,
          chord_degree(5, :Fs2, :major).to_a,2,
          chord(:Fs2,'maj9').to_a,2,
          chord(:Fs2,'maj11').to_a,2,
          chord(:Fs2,'13').to_a,2).tick(:b), amp: 2, release: 1, attack: 0.01
#  end
  sleep bar/2.0
end