live_loop :across_the_night do
with_fx :level, amp: 0.7 do
use_synth :dark_sea_horn; use_synth_defaults amp: 1, release: 8
sync :start
play degree(4, :A3, :major);16.times{sync :bar}
play degree(6, :A3, :major);16.times{sync :bar}
play degree(5, :A3, :major);16.times{sync :bar}
play degree(1, :A3, :major);16.times{sync :bar}
end
end