bar = 0.5

live_loop(:drums) do
  sample :drum_bass_hard
  7.times do |n|
    sample :drum_bass_soft
    sleep bar
    sample :drum_splash_soft if n % 2 == 0
  end
  
  sample :drum_bass_soft
  sleep bar/2
  sample :drum_bass_soft
  sleep bar/2
  sample :drum_bass_soft
  sleep bar/2
end