

live_loop :foo do
  sync :BOOM
  sample :loop_industrial

  sync :kick
#  play [:A3,:A2].choose
  sample :loop_industrial
  sleep 1
end

n=0
live_loop :pop do
  cue :kick

  sample :drum_bass_hard

  sample :loop_amen
  sample :loop_amen, rate: 0.5 if rand < 0.5
  
  if n % 4 ==0
    cue :BOOM
    with_fx :bitcrusher, bits: 4+n%7 do
    sample :loop_amen
    end
  end
  
  sleep sample_duration :loop_amen
  n+= 1
end