bar = 0.5

live_loop(:drums) do
  7.times do |n|
    sample :drum_bass_soft
    sleep bar
    sample :drum_cymbal_pedal if n % 2 == 1
  end
  
  sample :drum_bass_soft
  sleep bar/2
  sample :drum_bass_soft
  sleep bar/2
end