
live_loop :high do
  sync :kick
  sample :loop_industrial
sleep 1
end

n = 0
live_loop :drums do
  sample :drum_bass_hard
  cue :kick
  sample :loop_amen
  case (n%7)
  when 0: with_fx(:bitcrusher, bits: 4+n%7){sample :loop_amen}
  end
  sleep sample_duration :loop_amen
  n+1
end