["log","experiments", "shaderview"].each{|f| load "/Users/josephwilk/Workspace/repl-electric/live-coding-space/lib/#{f}.rb"}
t=true;f=false;_=nil
#Just messing around, will see what happens.

use_bpm 120

#120*3 = 360
#90*4 = 360

live_loop :looper do
  sample Corrupt[/90/,/bass/, (ring /_A#_/, /_D#_/).tick(:a), 0]
  sleep 21
end

live_loop :looper2 do
  #  sample Corrupt[/90/,/bass/, /_D#_/, 0]
  sleep 8
end

21
puts sample_duration( Corrupt[/90/,/bass/, /_D#_/, 0])