# Loading previous buffer contents. Please wait...load "/Users/josephwilk/Workspace/repl-electric/live-coding-space/lib/samples.rb";load "/Users/josephwilk/Workspace/repl-electric/live-coding-space/lib/dsp.rb";load "/Users/josephwilk/Workspace/repl-electric/live-coding-space/lib/monkey.rb"
#shader :shader, "wave.glsl", "rope.vert", "lines", 100000
set_volume! 1.0

with_fx :reverb, mix: 0.5, decay: 1 do
with_fx :pitch_shift do
live_loop :vocals, sync: :slicing do
 tick
 sleep 3
 with_fx :slicer, phase: 1.0, smooth: 0.85 do
 synth :beep, note: :fs4, decay: 4, amp: 0.3, attack: 0.05
 end

sample (ring "~/Workspace/music/samples/strawberry/Samples/Mic2/Sustains/Natural/Mm/vog_strw_sus_mm_02_b.wav",
 "/Users/josephwilk/Workspace/music/samples/flow/berry/f#4.wav"
).look
#sample "/Users/josephwilk/Workspace/music/samples/flow/berry/f#4.wav", amp: 1.4

#sample Berry[/mm/].reverse[0..2].look, amp: 1.5
#puts Berry[/mm/].reverse.look

#~/Workspace/music/samples/strawberry/Samples/Mic2/Sustains/Natural/Mm/vog_strw_sus_mm_02_b.wav"

#vor_alto_leg_mm_01_u_01
#vor_alto_leg_mm_01_u_02
#sample "/Users/josephwilk/Workspace/music/samples/strawberry/Samples/Ambiences/urthen_04.wav"
#sample "/Users/josephwilk/Workspace/music/samples/strawberry/Samples/Ambiences/gaiazone_07.wav"
sleep 3+2+8*2
end
end
end


