module Chimes
  def self.samples
    Dir["/Users/josephwilk/Dropbox/repl-electric/samples/12231__samulis__orchestral-chimes-samples/*"]
  end

  def self.notes
    n = {}
    self.samples.each{|note| 
      notes = note.match(/\d*__samulis__chimes-(.*)-(.*)-1.wav$/)
      if notes
        n[notes[1].gsub(/-/,"")] = note
      end
    }
    n
  end

  def self.note(n)
    self.notes[n]
  end
end

live_loop :b do
  sample Chimes.note("d3"), amp: 3
  sleep 2
end