#10 year olds children can you this. 
["experiments.rb"].each{|f| load "/Users/josephwilk/Workspace/repl-electric/live-coding-space/lib/#{f}"}

#load_snippets("~/.sonic-pi/snippets")

d=  "/Users/josephwilk/Workspace/music/samples/loops/Mountain/Drum\ Loops/120_DeepVerb_01_SP.wav"
use_sample_bpm d

live_loop :loop do
sample d
sleep sample_duration(d)
end

live_loop :kick do
  sync :loop

8.times {
sample Ether[/hat/i,0..6], rate: 1.0
sleep 1/32.0  
}
end