live_loop :back do
  play degree(1, :F3, :major),attack: 0.2
  sleep 1
  play degree(3, :F3, :major),attack: 0.25, release: 1.0
  sleep 1
end

live_loop :back2 do
sync :back
  #play degree(1, :Fs2, :major), attack: 0.01, release: 2, decay: 2
end