#play chord(:B3, "m+5"), release: 8, decay: 8


live_loop :demop do |idx|
play deg_seq(*%w[:A2 4444 5555 11111])[idx]
sleep 1.0
idx+=1
end


live_loop :demo2 do |idx|
play (ring 

chord_degree(1, :A3, :major),
chord_degree(4, :A3, :major),
chord(:D3, :major7),
           )[idx], release: 2, decay: 2
sleep 4

idx+=1
end