
live_loop :highlights do
  sample :sn_dolf
  sync :kick
sample :loop_industrial
sleep 1
end

n=0
live_loop :drums do
  cue :kick
  sample :drum_bass_hard
  
  case n %7
    when 0 
      with_fx :bitcrusher do
      sample :loop_amen
      end
      
  end
sample :loop_amen
sleep sample_duration :loop_amen
n+1
end