["instruments","shaderview","experiments", "log"].each{|f| load "/Users/josephwilk/Workspace/repl-electric/live-coding-space/lib/#{f}.rb"}; _=nil
load_snippets "/Users/josephwilk/.sonic-pi/snippets"
set_volume! 8.0

live_loop :begin do
  with_synth :dark_ambience do
    play (ring :Fs1).tick(:notes), amp: 4.0, decay: 8.01
  end
  sleep 8
end

live_loop :do do
  with_synth :dark_sea_horn do
    play (ring :Fs1).tick(:notes), cutoff: rrand(70,80)
  end
  sleep 8
end