
live_loop :b do
  sync :kick
  sample [:loop_industrial].choose
end

n=0
live_loop :a do
  sample :drum_bass_hard
  cue :kick
  
  if n % 8 == 0 
    with_fx :bitcrusher, bits: 4+n%7 do
      sample :loop_amen
    end
  end
  
  sample :loop_amen
  sleep sample_duration :loop_amen
  n+=1
end