live_loop :testtest do
  tick
  score = (ring [:fs1, 2], [:fs1,1], [:gs1,2], [:a1,2], [:gs1,2], [:a1,1], [:a1,1], [:cs2,2]).look
  moog score[0], 100, sustain: score[1]
  sleep score[1]
end

live_loop :drums, sync: :testtest do
  smp Mountain[/subkick/,1], amp: 1
  sleep 1
end
