["log","experiments", "shaderview"].each{|f| load "/Users/josephwilk/Workspace/repl-electric/live-coding-space/lib/#{f}.rb"}
t=true;f=false;_=nil
#Just messing around, will see what happens.

live_loop :werbling do
  sample Corrupt[/F#m/, /Guitar/,3], cutoff: 65, amp: 0.8
  notes = (ring chord(:Fs3, :m), chord(:A3, 'M')).tick
  with_synth(:dark_ambience){
    play notes, decay: 8.1, amp: 0.6, detune1: 24, detune2: -24
  }
  sleep 8
end