live_loop :drums do

with_fx(:bitcrusher, bits: (ring 6,7,8,9,10,11).tick(:crush)) do
    sample :loop_amen
    sleep sample_duration(:loop_amen)
  end
end


live_loop :kick do
  sync :drums
  sample :drum_bass_soft
  sleep 0.5
end

live_loop :loop do |n|
  sync :drums

  case n % 16
   when 0
  sample :loop_industrial
end

  n+=1
end