bar = 1/2.0

live_loop :fuzz do


with_fx :reverb do

with_fx :slicer, phase: 0.05 do
with_fx :hpf, cutoff: 115 do
use_synth :dsaw
play degree(6, :A2, :major), release: bar*2, amp: 0.9
end
sleep bar
end
end
end