bar = 1.0/2.0

live_loop :beep do
  use_synth_defaults attack: 0.01, release: 0.05
  play degree(1, :D3, :major)
  sleep bar
  sleep bar
  play degree(2, :D3, :major)
  sleep bar
  sleep bar
  play degree(3, :D3, :major)
  sleep bar
  play degree(3, :D3, :major)
  sleep bar
  sleep bar
  play degree(5, :D3, :major)
  sleep bar

  end