use_synth :pulse

class SonicPi::Core::RingArray
  def rotate_pitch(n)
    output = self[0..-1]
    n.times do
      output = (output.rotate[0..-2]) + Array(output.rotate[-1] + 12)
    end
    output
  end
end

6.times do |i|
  play chord(:f, :major).ring.rotate_pitch(i)
  sleep 0.5
end