live_loop :test do
sample Scape[/perc/i].tick
sleep 0.25
end


live_loop :snare do
sync :test
sample Scape[/snare/i].tick
sleep 0.5
end

live_loop :kick do
sync :test
sample Scape[/hats/i].tick
sleep 0.25
end


live_loop :kick2 do
sync :test
sample Scape[/kick/i].tick
sleep 1.0
end