["shaderview"].each{|f| load "/Users/josephwilk/Workspace/repl-electric/live-coding-space/lib/#{f}.rb"}

#shader(:shader, "nil.glsl")
live_loop :d do
shader("decaying-uniform", "iBeat", 1.0)
sample Mountain[/kick/,0]
sleep 4.0

end