["shaderview"].each{|f| load "/Users/josephwilk/Workspace/repl-electric/live-coding-space/lib/#{f}.rb"}

shader(:shader, "nil.glsl") 

live_loop :indeterminism, auto_cue: false do
  shader(:uniform, :iBeat, 1.0)
  sample :drum_heavy_kick, amp: 2.5

  8.times{
  sleep 1.0
  shader(:suniform, :iBeat, 0.0)
}
end

#shader(:mesh)

shader(:suniform, :iCellMotion, 1.0) 
shader(:uniform, "iCellCount", 20.0)

#shader(:uniform, :iBeat, 1.0)