["shaderview","experiments", "log"].each{|f| load "/Users/josephwilk/Workspace/repl-electric/live-coding-space/lib/#{f}.rb"}
_=nil
#Messing around with Sonic Pi, nothing polished. Just play. Play can go wrong, thats ok.


live_loop :softly_kicking do
  with_fx(:echo, phase: 0.25, decay: 0.5) do
    sample Mountain[/subkick/,0]
  end
  sleep 1
  with_fx(:reverb) do
    sample Fraz[/snap/,0], cutoff: 90, amp: rand
  end
  sleep 1
end