


live_loop :melody do
  2.times{sync :apeg}
  play (ring :Fs3, :Cs4, :Fs3, :Cs4, :Fs3, :Cs4, :Es4, :Es4,       #1  FAC E G
             :Gs3, :As4, :Gs3, :As3, :Gs3, :As3, :Es4, :Es4,       #3  ACE G B
             :Cs4, :Cs4, :Fs3, :Cs4, :Fs3, :Cs4, :Es4, :Es4,       #6  DFA C E

).tick(:notes), amp: 0.5

end
#play :Cs4



#Cs4 -> Gs4