require 'json'

ROOM_SOURCE = "/Users/josephwilk/Workspace/josephwilk/ruby/bright/data.json"
ROOM        = File.read(ROOM_SOURCE)

bar = 1.0

live_loop :metronome do
  cue :whole; sleep bar
end

live_loop :cam1 do
sync :whole
end

live_loop :cam2 do
sync :whole
end

live_loop :cam2 do
sync :whole
end