#10 year old children can do this. 
["experiments.rb"].each{|f| load "/Users/josephwilk/Workspace/repl-electric/live-coding-space/lib/#{f}"}
load_snippets("~/.sonic-pi/snippets")

set_volume! 2.0

d =  MountainLoop[/bearsbeat/i,0]
d1 =  MountainLoop[/bearsbeat/i,1]

use_sample_bpm d

live_loop :drums do
  with_fx :bitcrusher, bits: (ring *5..8).tick, amp: 0.2 do
    sample (knit d, 4, d1,4).tick
    sleep sample_duration(d)
  end
end