#qbitsea_on :A3

#corrupt_on :A3


#corrupt flatpitch: 0.0
load "/Users/josephwilk/Workspace/repl-electric/live-coding-space/lib/shaderview.rb"



#shader(:shader, "nil.glsl")
#shader(:uniform, "iColorFactor", 0.0)
#live_loop :dance do
#  shader(:suniform, "iColorFactor", 2.0)
#  sample :drum_heavy_kick
#  sleep 1
#end


#/re/test1
